X:1
T:Blessed art thou that fearest God - Mundy
T:#
%%score [ 1 2 3 ]
L:1/8
Q:1/4=120
M:2/2
K:C
V:1 treble nm="Soprano " snm="S"
V:2 treble nm="Alto" snm="A"
V:3 treble-8 nm="Tenor" snm="T"
V:1
"^Blessed art thou that fearest God""^John Mundy\n(?-1630)""^Psalm 128 vv 1-3" G6 A2 | B4 c4- | %2
w: Bles- sed|art thou|
 c4 G4 | c8- | c4 (c4- | c2 _B2 A4) | G8 |[M:2/2] z4 A4 | G3 F E2 D2 | E8 | z4 A4 | c4 B2 A2- | %12
w: * that|fear\-|* est||God,|and|walk- est in his|way:|for|of thy la\-|
 A2 D2 G2 F2 | A4 A4 | G4 z4 | z2 d4 A2 | c4 B4- | B4 z2 c2- | c2 G2 A4 | G3 (F E2 F2) | %20
w: * bour thou shalt|eat, shalt|eat,|Hap- py|art thou,|* hap\-|* py art|thou I * *|
 (D2 C2 D4) | E8 | z4 z4 | z4 c4 | B2 c2 d2 B2 | c2 B2 A4 | z2 B4 d2- | d2 c2 B2 c2 | A8 | %29
w: |say.||Like|fruit- ful vines on|thy house- side,|so doth|* thy wife spring|out,|
 z2 A4 c2- | c2 B2 A2 B2 | G4 D4 | G2 (E2 F4) | E8 | z4 z4 | z4 z4 | z4 z4 | G6 A2- | A2 B4 c2- | %39
w: so doth|* thy wife spring|out, thy|wife spring *|out:||||Thy child\-|* ren stand|
 c2 A2 B2 c2 | d4 d2 c2- | c2 _B2 A4 | B3 (A G2) F2 | E4 z4 | z4 c4 | B2 c2 d2 B2 | d4 d4 | A8 | %48
w: * like o- live|plants, thy child\-|* ren stand|like o\- * live|plants,|thy|ta- ble round a-|bout, a-|bout,|
 z4 F4 | E2 F2 G2 E2 |[Q:1/4=116] F2[Q:1/4=114] E2[Q:1/4=111] D2[Q:1/4=109] C2 | %51
w: thy|ta- ble round a-|bout, thy ta- ble|
[Q:1/4=105] D6[Q:1/4=101] D2 |[Q:1/4=100] E16 |] %53
w: round a-|bout.|
V:2
 z4 z4 | z4 z4 | E6 F2 | G4 A4- | A2 A2 A4- | A2 (G2 F4) | E3 F G2 E2 |[M:2/2] F6 F2 | E2 D2 D4- | %9
w: ||Bles- sed|art thou|* that fear\-|* est *|God, that fear- est|God, and|walk- est in|
 D4 ^C4 | D8 | z4 D4 | F4 E2 D2- | D2 A,2 C2 D2 | E4 D2 (F2 | E2) F2 D2 F2- | F2 E2 G4 | %17
w: * his|way:|for|of thy la\-|* bour thou shalt|* eat, thou|* shalt eat, hap\-|* py art|
 D2 D4 A,2 | E4 E2 F2 | D4 C2 D2 | B,2 C4 B,2 | C8 | G4 F2 G2 | A2 D2 E2 ^F2 | G4 A2 G2 | %25
w: thou, hap- py|art thou I|say, hap- py|art thou I|say.|Like fruit- ful|vines on thy house-|side, on thy|
 E2 G4 ^F2 | G4 G4 | (F2 E4) E2- | E2 F4 E2 | D2 E2 F2 E2 | G4 F2 G2 | E2 D2 B,2 A,2 | B,2 C4 B,2 | %33
w: house, thy house-|side, so|doth * thy|* wife spring|out, thy wife spring|out, so doth|thy wife spring out,|thy wife spring|
 C4 C4- | C2 D4 E2- | E2 ^F4 D2 | E2 (F2 G2 E2) | D4 E4 | ^F2 G2 E4 | F4 (D2 C2- | %40
w: out: Thy|* child- ren|* stand like|o- live * *|plants, thy|child- ren stand|like o\- *|
 C2) B,2 A,2 A2- | A2 G4 ^F2 | G8 | z4 G4 | ^F2 G2 A2 F2 | G4 D4 | B,2 C2 D2 B,2 | D4 C4 | %48
w: * live plants, like|* o- live|plants,|thy|ta- ble round a-|bout, thy|ta- ble round a-|bout, thy|
 B,2 C2 D2 B,2 | C4 E4 | D2 C2 C4- | C4 B,4 | C16 |] %53
w: ta- ~ble round a-|bout, thy|ta- ble round|* a-|bout.|
V:3
 z4 z4 | z4 z4 | c6 d2 | e4 f4- | f4 F4 | A6 _B2 | c4 C4 |[M:2/2][K:treble-8] F3 G A2 (F2 | %8
w: ||Bles- sed|art thou|* that|fear- est|God and|walk- est in his|
 G4 _B4 | A8) | D8 | z4 z4 | z4 z4 | z4 A4 | c4 B2 A2- | A2 D2 G2 F2 | A4 z2 G2- | G2 D2 F4 | %18
w: ||way:|||for|of thy la\-|* bour thou shalt|eat, hap\-|* py art|
 C2 c4 F2 | G4 A2 F2 | G2 (A2 G4) | C4 c4 | B2 c2 d2 B2 | c2 B2 A4 | G4 F2 G2 | A2 B2 c2 d2 | G8 | %27
w: thou, hap- py|art thou, art|thou I *|say. Like|fruit- ful vines on|thy house- side,|like fruit- ful|vines on thy house-|side,|
 z4 z2 A2- | A2 d4 c2 | B2 (c2 A4) | G4 z2 E2- | E2 G4 F2 | E2 (C2 D4) | C8 | F4 G4 | (A4 B4) | %36
w: so|* doth thy|wife spring *|out, so|* doth thy|wife spring *|out:|Thy child-|ren *|
 c2 (A2 G2) c2- | c2 B2 c4 | A2 G4 (A2- | A2 F2 G2 E2 | D4) F2 G2 | A2 (_B2 c2 d2) | G8 | %43
w: stand like * o\-|* live plants,|thy child- ren||* stand like|o- live * *|plants,|
 c4 B2 c2 | d2 B2 c2 A2 | G8 | z4 G4 | ^F2 G2 A2 F2 | G2 E2 F2 (D2 | C8) | F4 (A4 | G8) | C16 |] %53
w: thy ta- ble|round a- bout, a-|bout,|thy|ta- ble round a-|bout, thy ta- ble||round a\-||bout.|

